www/assets/icons/pan_tool_outline.svg

<svg width="24" height="24" viewBox="0 0 24 24" xmlns="http://www.w3.org/2000/svg" fill='currentColor'><path d="M18.37 23.9949H11.82C10.74 23.9949 9.68001 23.5449 8.93001 22.7649L1.63 15.1549L3.7 13.3249C4.32 12.7749 5.23 12.6649 5.96 13.0549L8.37 14.3349V4.78488C8.37 3.40488 9.49 2.28488 10.87 2.28488C11.04 2.28488 11.21 2.30488 11.38 2.33488C11.47 1.03488 12.55 0.00488281 13.87 0.00488281C14.73 0.00488281 15.48 0.434883 15.93 1.09488C16.22 0.974883 16.54 0.914883 16.87 0.914883C18.25 0.914883 19.37 2.03488 19.37 3.41488V3.69488C19.53 3.66488 19.7 3.64488 19.87 3.64488C21.25 3.64488 22.37 4.76488 22.37 6.14488V19.9949C22.37 22.2049 20.58 23.9949 18.37 23.9949ZM4.51 15.2749L10.37 21.3749C10.75 21.7649 11.27 21.9949 11.81 21.9949H18.37C19.47 21.9949 20.37 21.0949 20.37 19.9949V6.14488C20.37 5.86488 20.15 5.64488 19.87 5.64488C19.59 5.64488 19.37 5.86488 19.37 6.14488V11.9949H17.37V3.41488C17.37 3.13488 17.15 2.91488 16.87 2.91488C16.59 2.91488 16.37 3.13488 16.37 3.41488V11.9949H14.37V2.50488C14.37 2.22488 14.15 2.00488 13.87 2.00488C13.59 2.00488 13.37 2.22488 13.37 2.50488V11.9949H11.37V4.78488C11.37 4.50488 11.15 4.28488 10.87 4.28488C10.59 4.28488 10.37 4.51488 10.37 4.78488V17.6549L5.02 14.8249L4.51 15.2749Z"/></svg>

<svg xmlns="http://www.w3.org/2000/svg" width="24" height="24" viewBox="0 0 24 24" fill='currentColor'><path d="M18.37 23.995h-6.55c-1.08 0-2.14-.45-2.89-1.23l-7.3-7.61 2.07-1.83c.62-.55 1.53-.66 2.26-.27l2.41 1.28v-9.55a2.5 2.5 0 0 1 3.01-2.45c.09-1.3 1.17-2.33 2.49-2.33.86 0 1.61.43 2.06 1.09.29-.12.61-.18.94-.18a2.5 2.5 0 0 1 2.5 2.5v.28a2.5 2.5 0 0 1 3 2.45v13.85c0 2.21-1.79 4-4 4m-13.86-8.72 5.86 6.1c.38.39.9.62 1.44.62h6.56c1.1 0 2-.9 2-2V6.145c0-.28-.22-.5-.5-.5s-.5.22-.5.5v5.85h-2v-8.58c0-.28-.22-.5-.5-.5s-.5.22-.5.5v8.58h-2v-9.49c0-.28-.22-.5-.5-.5s-.5.22-.5.5v9.49h-2v-7.21c0-.28-.22-.5-.5-.5s-.5.23-.5.5v12.87l-5.35-2.83z"/></svg>
